lib/functional/people/handshake.svg

<svg xmlns="http://www.w3.org/2000/svg" fill="none" stroke="currentColor" aria-hidden="true" viewBox="0 0 32 32"><g id="Icon-Handshake"><g clip-path="url(#clip0_11_763)"><g id="size=md (32px)"><g id="Handshake"><path id="Vector" stroke-linecap="round" stroke-linejoin="round" stroke-width="2" d="M30.0875 15.225L27 16.7625L23 9.11253L26.125 7.55003C26.3572 7.43165 26.6269 7.40989 26.8751 7.48951C27.1233 7.56913 27.3299 7.74365 27.45 7.97503L30.525 13.8625C30.5874 13.9804 30.6255 14.1095 30.6372 14.2423C30.6489 14.3752 30.634 14.509 30.5932 14.6359C30.5525 14.7629 30.4867 14.8804 30.3999 14.9816C30.313 15.0827 30.2068 15.1655 30.0875 15.225V15.225Z"/><path id="Vector_2" stroke-linecap="round" stroke-linejoin="round" stroke-width="2" d="M4.99979 16.6375L1.91229 15.0875C1.79341 15.0292 1.68746 14.9477 1.60073 14.8476C1.51401 14.7476 1.44829 14.6311 1.40747 14.5052C1.36666 14.3793 1.35159 14.2464 1.36315 14.1145C1.37471 13.9826 1.41268 13.8544 1.47479 13.7375L4.54979 7.84999C4.67008 7.61878 4.87588 7.44367 5.12337 7.36195C5.37086 7.28023 5.64047 7.29837 5.87479 7.41249L8.99979 8.97499L4.99979 16.6375Z"/><path id="Vector_3" stroke-linecap="round" stroke-linejoin="round" stroke-width="2" d="M27 16.7625L25 19.1125L20.4 23.7125C20.2746 23.8297 20.1227 23.9149 19.9573 23.9606C19.7918 24.0063 19.6178 24.0112 19.45 23.975L12.2 22.1625C12.0676 22.1256 11.9442 22.0618 11.8375 21.975L5 16.6375"/><path id="Vector_4" stroke-linecap="round" stroke-linejoin="round" stroke-width="2" d="M25.0001 19.1125L19.5001 15.1125L17.9001 16.3125C17.2069 16.8299 16.3651 17.1094 15.5001 17.1094C14.6351 17.1094 13.7933 16.8299 13.1001 16.3125L12.4251 15.8C12.311 15.7132 12.2166 15.6032 12.1481 15.4772C12.0797 15.3512 12.0388 15.2121 12.0282 15.0691C12.0175 14.9261 12.0374 14.7825 12.0864 14.6477C12.1355 14.513 12.2126 14.3902 12.3126 14.2875L17.2126 9.39999C17.3047 9.3084 17.4139 9.23586 17.534 9.18653C17.6541 9.1372 17.7828 9.11204 17.9126 9.11249H23.0001"/><path id="Vector_5" stroke-linecap="round" stroke-linejoin="round" stroke-width="2" d="M9.0752 8.97502L15.4877 7.10002C15.7155 7.03468 15.9592 7.0524 16.1752 7.15002L20.5002 9.11252"/><path id="Vector_6" stroke-linecap="round" stroke-linejoin="round" stroke-width="2" d="M14 26.6125L10.2375 25.6625C10.0842 25.6279 9.94221 25.5547 9.825 25.45L7 23"/></g></g></g></g><defs><clipPath id="clip0_11_763"><rect width="32" height="32" fill="white" rx="5"/></clipPath></defs></svg>

<svg xmlns="http://www.w3.org/2000/svg" fill="none" stroke="currentColor" aria-hidden="true" viewBox="0 0 32 32"><g stroke="#101828" stroke-linecap="round" stroke-linejoin="round" stroke-width="2" clip-path="url(#a)"><path d="M30.087 15.225 27 16.762l-4-7.65 3.125-1.562a.988.988 0 0 1 1.325.425l3.075 5.888a1 1 0 0 1-.438 1.362v0ZM5 16.637l-3.088-1.55a.987.987 0 0 1-.437-1.35L4.55 7.85a1 1 0 0 1 1.325-.438L9 8.975l-4 7.662Zm22 .125-2 2.35-4.6 4.6a1.063 1.063 0 0 1-.95.263l-7.25-1.813a1 1 0 0 1-.362-.187L5 16.637"/><path d="m25 19.113-5.5-4-1.6 1.2a4.012 4.012 0 0 1-4.8 0l-.675-.513a1.014 1.014 0 0 1-.112-1.513l4.9-4.887a.988.988 0 0 1 .7-.288H23"/><path d="M9.075 8.975 15.488 7.1a1 1 0 0 1 .687.05L20.5 9.113m-6.5 17.5-3.762-.95a.925.925 0 0 1-.413-.213L7 23"/></g><defs><clipPath id="a"><rect width="32" height="32" fill="#fff" rx="5"/></clipPath></defs></svg>
